X:1
L:1/8
M:4/4
K:C
[M:6/8][K:D] .abc (A/F/) | DED DdB | AGF G2 A | BGG AFD | EFE E2 (A/F/) | DED d2 B | AGF G2 A | 
 BGB AFA | DED D2 :: (d/e/) | fdB ABd | efg fed | fdB ABd | fee e2 (e/f/) | fdB ABd | 
 e(f/e/d) eag | fdB Ade | fdd d2 :|
